X: 825
T: Alastair Of The Den
R: polka
M: 2/4
K: Bminor
|:BA/B/ d2|dc/B/ c2|ef/e/ cA|ef/e/ cA|
BA/B/ d2|dc/B/ cd/e/|fd ec|B2 B2:|
|:fd Bd/e/|fd Bd|ec Ac/d/|ec Ac|
fd Bd/e/|fd Bd/e/|fd ec|B2 B2:|

